src/actions/22/skg-chart-bubble.svg

<svg xmlns="http://www.w3.org/2000/svg" viewBox="0 0 22 22">
  <defs id="defs3051">
    <style type="text/css" id="current-color-scheme">
      .ColorScheme-Text {
        color:#2e3440;
      }
      .ColorScheme-Highlight {
        color:#88c0d0;
      }
      </style>
  </defs>
 <path 
     style="fill:currentColor;fill-opacity:1;stroke:none" 
     d="M 4 3 L 4 9 L 4 10 L 4 15 L 4 16 L 4 17 L 3 17 L 3 18 L 4 18 L 4 19 L 5 19 L 5 18 L 18.292969 18 L 19 18 L 19 17.292969 L 19 17 L 18.707031 17 L 17.292969 17 L 5 17 L 5 15.431641 L 5 15.423828 L 5 15 L 5 12.423828 L 5 11.423828 L 5 11 L 5 10 L 5 9 L 5 6 L 5 5.9921875 L 5 5 L 5 3 L 4 3 z M 15.048828 4.2304688 A 2.2186046 2.2186046 0 0 0 12.830078 6.4492188 A 2.2186046 2.2186046 0 0 0 15.048828 8.6679688 A 2.2186046 2.2186046 0 0 0 17.267578 6.4492188 A 2.2186046 2.2186046 0 0 0 15.048828 4.2304688 z M 7.9941406 7.7636719 A 0.8063584 0.8063584 0 0 0 7.1875 8.5703125 A 0.8063584 0.8063584 0 0 0 7.9941406 9.3769531 A 0.8063584 0.8063584 0 0 0 8.7988281 8.5703125 A 0.8063584 0.8063584 0 0 0 7.9941406 7.7636719 z M 11.904297 11.169922 A 1.4709449 1.4709449 0 0 0 10.433594 12.640625 A 1.4709449 1.4709449 0 0 0 11.904297 14.111328 A 1.4709449 1.4709449 0 0 0 13.375 12.640625 A 1.4709449 1.4709449 0 0 0 11.904297 11.169922 z "
     class="ColorScheme-Text"
     />
</svg>

<svg viewBox="0 0 22 22" xmlns="http://www.w3.org/2000/svg">
 <defs>
  <style type="text/css">.ColorScheme-Text {
        color:#2e3440;
      }
      .ColorScheme-Highlight {
        color:#88c0d0;
      }</style>
 </defs>
 <path class="ColorScheme-Text" d="m4 3v6 1 5 1 1h-1v1h1v1h1v-1h13.293 0.70703v-0.70703-0.29297h-0.29297-1.4141-12.293v-1.5684-0.007813-0.42383-2.5762-1-0.42383-1-1-3-0.0078125-0.99219-2h-1zm11.049 1.2305a2.2186 2.2186 0 0 0-2.2188 2.2188 2.2186 2.2186 0 0 0 2.2188 2.2188 2.2186 2.2186 0 0 0 2.2188-2.2188 2.2186 2.2186 0 0 0-2.2188-2.2188zm-7.0547 3.5332a0.80636 0.80636 0 0 0-0.80664 0.80664 0.80636 0.80636 0 0 0 0.80664 0.80664 0.80636 0.80636 0 0 0 0.80469-0.80664 0.80636 0.80636 0 0 0-0.80469-0.80664zm3.9102 3.4063a1.4709 1.4709 0 0 0-1.4707 1.4707 1.4709 1.4709 0 0 0 1.4707 1.4707 1.4709 1.4709 0 0 0 1.4707-1.4707 1.4709 1.4709 0 0 0-1.4707-1.4707z" fill="currentColor"/>
</svg>
